Origami/48x48/apps/moneydance.svg

<svg width="48" height="48" version="1.1" viewBox="0 0 48 48" xmlns="http://www.w3.org/2000/svg">
 <path d="m24 4a20 20 0 0 0 -20 20 20 20 0 0 0 20 20 20 20 0 0 0 20 -20 20 20 0 0 0 -20 -20z" style="fill:#ff7c40"/>
 <path d="m28 13a9 3 0 0 0 -9 3 9 3 0 0 0 9 3 9 3 0 0 0 9 -3 9 3 0 0 0 -9 -3zm8.474609 5a9 2.998536 0 0 1 -8.474609 2 9 2.998536 0 0 1 -8.474609 -1.996094 9 2.998536 0 0 0 -0.525391 0.998047 9 2.998536 0 0 0 2.4375 2.046875c2.015938 0.108533 3.796963 0.435674 5.128906 0.91211a9 2.998536 0 0 0 1.433594 0.039062 9 2.998536 0 0 0 9 -2.998047 9 2.998536 0 0 0 -0.525391 -1.001953zm0 3a9 2.998536 0 0 1 -8.005859 1.992188c0.337842 0.31535 0.53125 0.653769 0.53125 1.007812 0.064421 0.060028 0.09817 0.458079 0.121094 0.972656a9 2.998536 0 0 0 7.878906 -2.970703 9 2.998536 0 0 0 -0.525391 -1.001953zm-16.949218 0.003906a9 2.998536 0 0 0 -0.011719 0.011719c0.008568-1.55e-4 0.016816 1.47e-4 0.02539 0a9 2.998536 0 0 1 -0.013671 -0.011719zm16.949218 2.996094a9 2.998536 0 0 1 -7.332031 1.974609c0.005157 0.603585-5.1e-5 1.281397-0.011719 1.998047a9 2.998536 0 0 0 7.869141 -2.970703 9 2.998536 0 0 0 -0.525391 -1.001953zm0 3a9 2.998536 0 0 1 -7.359375 1.976562c-0.022686 0.951766-0.033979 1.306421-0.05664 2a9 2.998536 0 0 0 7.941406 -2.974609 9 2.998536 0 0 0 -0.525391 -1.001953zm0 3a9 2.998536 0 0 1 -7.445312 1.978516c-0.007208 0.221455-0.029591 0.984669-0.029297 1.023437-1.7e-4 0.347399-0.185432 0.679946-0.511719 0.990235a9 2.998536 0 0 0 8.511719 -2.990235 9 2.998536 0 0 0 -0.525391 -1.001953z" style="opacity:.2"/>
 <path d="m4.0215 24.418a20 20 0 0 0 -0.0215 0.582 20 20 0 0 0 20 20 20 20 0 0 0 20 -20 20 20 0 0 0 -0.021 -0.418 20 20 0 0 1 -19.979 19.418 20 20 0 0 1 -19.978 -19.582z" opacity=".2"/>
 <path d="m24 4a20 20 0 0 0 -20 20 20 20 0 0 0 0.0215 0.418 20 20 0 0 1 19.978 -19.418 20 20 0 0 1 19.979 19.582 20 20 0 0 0 0.021 -0.582 20 20 0 0 0 -20 -20z" fill="#ffffff" opacity=".2"/>
 <path d="m28 12a9 3 0 0 0 -9 3 9 3 0 0 0 9 3 9 3 0 0 0 9 -3 9 3 0 0 0 -9 -3zm8.474609 5a9 2.998536 0 0 1 -8.474609 2 9 2.998536 0 0 1 -8.474609 -1.996094 9 2.998536 0 0 0 -0.525391 0.998047 9 2.998536 0 0 0 9 2.998047 9 2.998536 0 0 0 9 -2.998047 9 2.998536 0 0 0 -0.525391 -1.001953zm0 3a9 2.998536 0 0 1 -8.474609 2 9 2.998536 0 0 1 -1.443359 -0.042969c1.490267 0.531263 2.422695 1.23809 2.439453 2.021485a9 2.998536 0 0 0 8.003906 -2.976563 9 2.998536 0 0 0 -0.525391 -1.001953zm-16.949218 0.003906a9 2.998536 0 0 0 -0.525391 0.998047 9 2.998536 0 0 0 0.003906 0.03125c0.331229-0.012317 0.655004-0.033203 0.996094-0.033203 0.493587 0 0.969404 0.023347 1.441406 0.048828a9 2.998536 0 0 1 -1.916015 -1.044922zm16.949218 2.996094a9 2.998536 0 0 1 -7.353515 1.976562c0.022763 0.51382 0.020598 1.237817 0.015625 1.996094a9 2.998536 0 0 0 7.863281 -2.970703 9 2.998536 0 0 0 -0.525391 -1.001953zm0 3a9 2.998536 0 0 1 -7.34375 1.974609c-0.014555 0.893179-0.021049 1.189347-0.044921 2a9 2.998536 0 0 0 7.914062 -2.972656 9 2.998536 0 0 0 -0.525391 -1.001953zm0 3a9 2.998536 0 0 1 -7.416015 1.976562c-0.022684 0.694276-0.058767 1.916915-0.058594 2.001954a9 2.998536 0 0 0 8 -2.976563 9 2.998536 0 0 0 -0.525391 -1.001953z" style="fill:#ffd8c6"/>
 <path d="m20 22a9 3 0 0 0 -9 3 9 3 0 0 0 9 3 9 3 0 0 0 9 -3 9 3 0 0 0 -9 -3zm8.474609 5a9 2.998536 0 0 1 -8.474609 2 9 2.998536 0 0 1 -8.474609 -1.996094 9 2.998536 0 0 0 -0.525391 0.998047 9 2.998536 0 0 0 9 2.998047 9 2.998536 0 0 0 9 -2.998047 9 2.998536 0 0 0 -0.525391 -1.001953zm0 3a9 2.998536 0 0 1 -8.474609 2 9 2.998536 0 0 1 -8.474609 -1.996094 9 2.998536 0 0 0 -0.525391 0.998047 9 2.998536 0 0 0 9 2.998047 9 2.998536 0 0 0 9 -2.998047 9 2.998536 0 0 0 -0.525391 -1.001953zm0 3a9 2.998536 0 0 1 -8.474609 2 9 2.998536 0 0 1 -8.474609 -1.996094 9 2.998536 0 0 0 -0.525391 0.998047 9 2.998536 0 0 0 9 2.998047 9 2.998536 0 0 0 9 -2.998047 9 2.998536 0 0 0 -0.525391 -1.001953z" style="opacity:.2"/>
 <ellipse cx="20" cy="24" rx="9" ry="3" style="fill:#ffffff"/>
 <path d="M 28.474609,29 A 9,2.998536 0 0 1 20,31.000976 9,2.998536 0 0 1 11.525391,29.003904 9,2.998536 0 0 0 11,30.001464 9,2.998536 0 0 0 20,33 9,2.998536 0 0 0 29,30.001464 9,2.998536 0 0 0 28.474609,29 Z" style="fill:#ffffff"/>
 <path d="M 28.474609,26 A 9,2.998536 0 0 1 20,28.000976 9,2.998536 0 0 1 11.525391,26.003904 9,2.998536 0 0 0 11,27.001464 9,2.998536 0 0 0 20,30 9,2.998536 0 0 0 29,27.001464 9,2.998536 0 0 0 28.474609,26 Z" style="fill:#ffffff"/>
 <path d="M 28.474609,32 A 9,2.998536 0 0 1 20,34.000976 9,2.998536 0 0 1 11.525391,32.003904 9,2.998536 0 0 0 11,33.001464 9,2.998536 0 0 0 20,36 9,2.998536 0 0 0 29,33.001464 9,2.998536 0 0 0 28.474609,32 Z" style="fill:#ffffff"/>
</svg>

<svg xmlns="http://www.w3.org/2000/svg" width="48" height="48" version="1.1" viewBox="0 0 48 48">
 <path style="fill:#ff7c40" d="m24 4a20 20 0 0 0 -20 20 20 20 0 0 0 20 20 20 20 0 0 0 20 -20 20 20 0 0 0 -20 -20z"/>
 <path style="opacity:0.2" d="M 28 13 A 9 3 0 0 0 19 16 A 9 3 0 0 0 28 19 A 9 3 0 0 0 37 16 A 9 3 0 0 0 28 13 z M 36.474609 18 A 9 2.998536 0 0 1 28 20 A 9 2.998536 0 0 1 19.525391 18.003906 A 9 2.998536 0 0 0 19 19.001953 A 9 2.998536 0 0 0 21.4375 21.048828 C 23.453438 21.157361 25.234463 21.484502 26.566406 21.960938 A 9 2.998536 0 0 0 28 22 A 9 2.998536 0 0 0 37 19.001953 A 9 2.998536 0 0 0 36.474609 18 z M 36.474609 21 A 9 2.998536 0 0 1 28.46875 22.992188 C 28.806592 23.307538 29 23.645957 29 24 C 29.064421 24.060028 29.09817 24.458079 29.121094 24.972656 A 9 2.998536 0 0 0 37 22.001953 A 9 2.998536 0 0 0 36.474609 21 z M 19.525391 21.003906 A 9 2.998536 0 0 0 19.513672 21.015625 C 19.52224 21.01547 19.530488 21.015772 19.539062 21.015625 A 9 2.998536 0 0 1 19.525391 21.003906 z M 36.474609 24 A 9 2.998536 0 0 1 29.142578 25.974609 C 29.147735 26.578194 29.142527 27.256006 29.130859 27.972656 A 9 2.998536 0 0 0 37 25.001953 A 9 2.998536 0 0 0 36.474609 24 z M 36.474609 27 A 9 2.998536 0 0 1 29.115234 28.976562 C 29.092548 29.928328 29.081255 30.282983 29.058594 30.976562 A 9 2.998536 0 0 0 37 28.001953 A 9 2.998536 0 0 0 36.474609 27 z M 36.474609 30 A 9 2.998536 0 0 1 29.029297 31.978516 C 29.022089 32.199971 28.999706 32.963185 29 33.001953 C 28.99983 33.349352 28.814568 33.681899 28.488281 33.992188 A 9 2.998536 0 0 0 37 31.001953 A 9 2.998536 0 0 0 36.474609 30 z"/>
 <path opacity=".2" d="m4.0215 24.418a20 20 0 0 0 -0.0215 0.582 20 20 0 0 0 20 20 20 20 0 0 0 20 -20 20 20 0 0 0 -0.021 -0.418 20 20 0 0 1 -19.979 19.418 20 20 0 0 1 -19.978 -19.582z"/>
 <path fill="#ffffff" opacity=".2" d="m24 4a20 20 0 0 0 -20 20 20 20 0 0 0 0.0215 0.418 20 20 0 0 1 19.978 -19.418 20 20 0 0 1 19.979 19.582 20 20 0 0 0 0.021 -0.582 20 20 0 0 0 -20 -20z"/>
 <path style="fill:#ffd8c6" d="M 28 12 A 9 3 0 0 0 19 15 A 9 3 0 0 0 28 18 A 9 3 0 0 0 37 15 A 9 3 0 0 0 28 12 z M 36.474609 17 A 9 2.998536 0 0 1 28 19 A 9 2.998536 0 0 1 19.525391 17.003906 A 9 2.998536 0 0 0 19 18.001953 A 9 2.998536 0 0 0 28 21 A 9 2.998536 0 0 0 37 18.001953 A 9 2.998536 0 0 0 36.474609 17 z M 36.474609 20 A 9 2.998536 0 0 1 28 22 A 9 2.998536 0 0 1 26.556641 21.957031 C 28.046908 22.488294 28.979336 23.195121 28.996094 23.978516 A 9 2.998536 0 0 0 37 21.001953 A 9 2.998536 0 0 0 36.474609 20 z M 19.525391 20.003906 A 9 2.998536 0 0 0 19 21.001953 A 9 2.998536 0 0 0 19.003906 21.033203 C 19.335135 21.020886 19.65891 21 20 21 C 20.493587 21 20.969404 21.023347 21.441406 21.048828 A 9 2.998536 0 0 1 19.525391 20.003906 z M 36.474609 23 A 9 2.998536 0 0 1 29.121094 24.976562 C 29.143857 25.490382 29.141692 26.214379 29.136719 26.972656 A 9 2.998536 0 0 0 37 24.001953 A 9 2.998536 0 0 0 36.474609 23 z M 36.474609 26 A 9 2.998536 0 0 1 29.130859 27.974609 C 29.116304 28.867788 29.10981 29.163956 29.085938 29.974609 A 9 2.998536 0 0 0 37 27.001953 A 9 2.998536 0 0 0 36.474609 26 z M 36.474609 29 A 9 2.998536 0 0 1 29.058594 30.976562 C 29.03591 31.670838 28.999827 32.893477 29 32.978516 A 9 2.998536 0 0 0 37 30.001953 A 9 2.998536 0 0 0 36.474609 29 z"/>
 <path style="opacity:0.2" d="M 20 22 A 9 3 0 0 0 11 25 A 9 3 0 0 0 20 28 A 9 3 0 0 0 29 25 A 9 3 0 0 0 20 22 z M 28.474609 27 A 9 2.998536 0 0 1 20 29 A 9 2.998536 0 0 1 11.525391 27.003906 A 9 2.998536 0 0 0 11 28.001953 A 9 2.998536 0 0 0 20 31 A 9 2.998536 0 0 0 29 28.001953 A 9 2.998536 0 0 0 28.474609 27 z M 28.474609 30 A 9 2.998536 0 0 1 20 32 A 9 2.998536 0 0 1 11.525391 30.003906 A 9 2.998536 0 0 0 11 31.001953 A 9 2.998536 0 0 0 20 34 A 9 2.998536 0 0 0 29 31.001953 A 9 2.998536 0 0 0 28.474609 30 z M 28.474609 33 A 9 2.998536 0 0 1 20 35 A 9 2.998536 0 0 1 11.525391 33.003906 A 9 2.998536 0 0 0 11 34.001953 A 9 2.998536 0 0 0 20 37 A 9 2.998536 0 0 0 29 34.001953 A 9 2.998536 0 0 0 28.474609 33 z"/>
 <ellipse style="fill:#ffffff" cx="20" cy="24" rx="9" ry="3"/>
 <path style="fill:#ffffff" d="M 28.474609,29 A 9,2.998536 0 0 1 20,31.000976 9,2.998536 0 0 1 11.525391,29.003904 9,2.998536 0 0 0 11,30.001464 9,2.998536 0 0 0 20,33 9,2.998536 0 0 0 29,30.001464 9,2.998536 0 0 0 28.474609,29 Z"/>
 <path style="fill:#ffffff" d="M 28.474609,26 A 9,2.998536 0 0 1 20,28.000976 9,2.998536 0 0 1 11.525391,26.003904 9,2.998536 0 0 0 11,27.001464 9,2.998536 0 0 0 20,30 9,2.998536 0 0 0 29,27.001464 9,2.998536 0 0 0 28.474609,26 Z"/>
 <path style="fill:#ffffff" d="M 28.474609,32 A 9,2.998536 0 0 1 20,34.000976 9,2.998536 0 0 1 11.525391,32.003904 9,2.998536 0 0 0 11,33.001464 9,2.998536 0 0 0 20,36 9,2.998536 0 0 0 29,33.001464 9,2.998536 0 0 0 28.474609,32 Z"/>
</svg>
